assets/images/favicon.svg

<svg fill="none" height="1000" viewBox="0 0 1000 1000" width="1000" xmlns="http://www.w3.org/2000/svg"><path d="m0 0h1000v1000h-1000z" fill="#fa5d00"/><g fill="#fff"><path d="m830.025 297.472c90.918 153.658 65.605 350.319-61.062 476.069-74.821 75.648-174.953 115.199-275.089 115.199-47.216 0-95.553-8.138-141.597-26.777l47.213 83.785-40.288 23.276-86.332-154.798 153.108-87.287 23.021 40.734-85.163 48.871c126.621 53.554 275.094 25.641 374.107-74.466 110.479-111.738 132.372-285.13 52.964-421.331zm-105.883-110.572-153.108 87.287-23.022-40.734 89.795-51.189c-128.912-60.507-283.189-33.732-385.619 69.829-110.523 111.691-132.376 285.134-52.968 421.289l-39.166 23.288c-90.9232-154.799-65.5991-351.472 59.847-478.351 111.703-112.88 278.612-144.2937 421.326-86.103l-43.751-77.967 40.289-23.2763z"/><path d="m547.709 521.313c0 12.607-9.875 22.962-22.422 22.962h-45.266v135.856h-22.872v-204.293c0-12.607 10.296-22.482 22.872-22.483h67.688zm-181.046 135.848c0 12.607-9.876 22.963-22.423 22.963h-22.873v-341.108c0-12.607 10.296-22.512 22.873-22.512h22.423zm67.88-90.439c0 12.606-10.295 22.511-22.872 22.511v90.891h-22.423v-340.658c0-12.607 10.296-22.962 22.423-22.962h22.872zm181.323 90.439c0 12.607-10.295 22.963-22.422 22.963h-22.873v-250.218c0-12.607 10.296-22.512 22.873-22.512v-90.89h22.422zm68.128 0c0 12.607-9.876 22.963-22.423 22.963h-22.872v-341.108c0-12.607 10.296-22.512 22.872-22.512h22.423z"/></g></svg>

<svg width="1000" height="1000" viewBox="0 0 1000 1000" fill="none" xmlns="http://www.w3.org/2000/svg">
<rect width="1000" height="1000" rx="100" fill="#FA5D00"/>
<path d="M830.025 297.471C920.943 451.129 895.631 647.79 768.964 773.54C694.142 849.188 594.01 888.739 493.874 888.739C446.658 888.739 398.321 880.601 352.277 861.962L399.49 945.747L359.202 969.023L272.87 814.225L425.978 726.938L448.999 767.672L363.837 816.543C490.458 870.097 638.931 842.184 737.943 742.077C848.422 630.339 870.315 456.947 790.907 320.746L830.025 297.471ZM724.142 186.899L571.034 274.186L548.012 233.452L637.808 182.263C508.896 121.756 354.618 148.531 252.188 252.092C141.665 363.783 119.812 537.226 199.22 673.381L160.054 696.669C69.1308 541.87 94.4549 345.197 219.901 218.318C331.604 105.438 498.514 74.0242 641.228 132.215L597.476 54.248L637.765 30.9717L724.142 186.899Z" fill="white"/>
<path d="M547.709 521.314C547.709 533.921 537.834 544.276 525.287 544.276H480.021V680.132H457.149V475.839C457.149 463.232 467.445 453.357 480.021 453.356H547.709V521.314ZM366.663 657.162C366.663 669.769 356.787 680.125 344.24 680.125H321.367V339.017C321.367 326.41 331.663 316.505 344.24 316.505H366.663V657.162ZM434.543 566.723C434.543 579.329 424.248 589.234 411.671 589.234V680.125H389.248V339.467C389.248 326.86 399.544 316.505 411.671 316.505H434.543V566.723ZM615.866 657.162C615.866 669.769 605.571 680.125 593.444 680.125H570.571V429.907C570.571 417.3 580.867 407.395 593.444 407.395V316.505H615.866V657.162ZM683.994 657.162C683.994 669.769 674.118 680.125 661.571 680.125H638.699V339.017C638.699 326.41 648.995 316.505 661.571 316.505H683.994V657.162Z" fill="white"/>
</svg>
